X: 34516
T: Rights Of Women, The
R: hornpipe
M: 4/4
K: Amajor
B2 F2 B2 cB|A3B cA (3cde|f2 c2 f3e|cfec BA (3FGA|
B2 F2 B2 cB|A3B cA (3cde|agfe c2ec|decd BAFA:|
B2 bb b2 af|efab a2 (3abc'|d'2 b2 babd'|c'2 fe fbec|
B2 b/b/b b2 af|efab a2 (3fga|bgaf gefe|c2 BA (3Bcd cA:|

